src/images/team-members.svg

<?xml version="1.0" encoding="UTF-8"?>
<svg width="55px" height="55px" viewBox="0 0 55 55" version="1.1" xmlns="http://www.w3.org/2000/svg" xmlns:xlink="http://www.w3.org/1999/xlink">
    <!-- Generator: Sketch 53 (72520) - https://sketchapp.com -->
    <title>11</title>
    <desc>Created with Sketch.</desc>
    <g id="Marshmello_landing-page" stroke="none" stroke-width="1" fill="none" fill-rule="evenodd">
        <g id="Marshmello_landngpage-Copy" transform="translate(-738.000000, -2476.000000)" fill="#791CFF" fill-rule="nonzero">
            <g id="11" transform="translate(738.000000, 2476.000000)">
                <path d="M52.8515625,0 L2.1484375,0 C0.961761475,0 0,0.961761475 0,2.1484375 L0,39.3860627 C0,40.572319 0.961761475,41.5345002 2.1484375,41.5345002 L11.1236191,41.5345002 C11.4425277,42.6133346 11.9951629,43.5927201 12.7231979,44.4139099 C10.0128937,46.2434387 8.22742465,49.3427277 8.22742465,52.8515625 C8.22742465,54.0382385 9.18918612,55 10.3758621,55 L44.6241379,55 C45.8108139,55 46.7725754,54.0382385 46.7725754,52.8515625 C46.7725754,49.3427277 44.9871063,46.2434387 42.2768021,44.4139099 C43.0048371,43.5927201 43.5574723,42.6133346 43.8763809,41.5345002 L52.8515625,41.5345002 C54.0382385,41.5345002 55,40.572319 55,39.3860627 L55,2.1484375 C55,0.961761475 54.0382385,0 52.8515625,0 Z M12.9309082,50.703125 C13.7907028,48.522377 15.9185791,46.9752502 18.4010315,46.9752502 C20.8830643,46.9752502 23.0113602,48.522377 23.8707352,50.703125 L12.9309082,50.703125 Z M15.1087189,39.3860627 C15.1087189,37.5703812 16.58535,36.09375 18.4006119,36.09375 C20.2158737,36.09375 21.6929245,37.5703812 21.6929245,39.3860627 C21.6929245,41.2013245 20.2158737,42.6779557 18.4006119,42.6779557 C16.58535,42.6779557 15.1087189,41.2013245 15.1087189,39.3860627 L15.1087189,39.3860627 Z M27.5,48.3054352 C26.7111206,46.7327117 25.5273819,45.3916169 24.0784455,44.4139099 C24.8064804,43.5927201 25.3591155,42.6133346 25.6780242,41.5345002 L29.3215561,41.5345002 C29.6408845,42.6133346 30.1930999,43.5927201 30.9211349,44.4139099 C29.4726181,45.3916169 28.2888794,46.7327117 27.5,48.3054352 Z M31.1292648,50.703125 C31.9886398,48.522377 34.1169357,46.9752502 36.5989685,46.9752502 C39.0814209,46.9752502 41.2092972,48.522377 42.0690918,50.703125 L31.1292648,50.703125 Z M33.3070755,39.3860627 C33.3070755,37.5703812 34.7837067,36.09375 36.5989685,36.09375 C38.41465,36.09375 39.8912811,37.5703812 39.8912811,39.3860627 C39.8912811,41.2013245 38.41465,42.6779557 36.5989685,42.6779557 C34.7837067,42.6779557 33.3070755,41.2013245 33.3070755,39.3860627 L33.3070755,39.3860627 Z M50.703125,37.2376252 L43.8763809,37.2376252 C42.9477692,34.0963745 40.0377274,31.796875 36.5989685,31.796875 C33.1606292,31.796875 30.2505875,34.0963745 29.3219758,37.2376252 L25.6784439,37.2376252 C24.7494125,34.0963745 21.8393708,31.796875 18.4010315,31.796875 C14.9622726,31.796875 12.0522308,34.0963745 11.1236191,37.2376252 L4.296875,37.2376252 L4.296875,4.296875 L50.703125,4.296875 L50.703125,37.2376252 Z M21.7281723,29.4218445 L35.1936722,22.6890946 C36.7735291,21.8989563 36.7756271,19.6363831 35.1936722,18.8458252 L21.7281723,12.1126556 C20.3018952,11.4001465 18.6188126,12.437439 18.6188126,14.0345002 L18.6188126,27.5 C18.6188126,29.1050338 20.3128052,30.1293182 21.7281723,29.4218445 Z M22.9156876,17.5106048 L29.4285583,20.7672501 L22.9156876,24.0238953 L22.9156876,17.5106048 Z" id="Shape"></path>
            </g>
        </g>
    </g>
</svg>

<svg width="55" height="55" xmlns="http://www.w3.org/2000/svg"><path d="M52.852 0H2.148A2.148 2.148 0 000 2.148v37.238c0 1.186.962 2.149 2.148 2.149h8.976a7.582 7.582 0 001.6 2.879 10.17 10.17 0 00-4.497 8.438c0 1.186.962 2.148 2.149 2.148h34.248a2.148 2.148 0 002.149-2.148 10.17 10.17 0 00-4.496-8.438 7.582 7.582 0 001.6-2.88h8.975A2.149 2.149 0 0055 39.387V2.148A2.148 2.148 0 0052.852 0zM12.93 50.703a5.887 5.887 0 015.47-3.728 5.886 5.886 0 015.47 3.728H12.93zm2.178-11.317a3.296 3.296 0 013.292-3.292 3.296 3.296 0 013.292 3.292 3.296 3.296 0 01-3.292 3.292 3.295 3.295 0 01-3.292-3.292zm12.391 8.92a10.24 10.24 0 00-3.422-3.892 7.582 7.582 0 001.6-2.88h3.644a7.587 7.587 0 001.6 2.88 10.242 10.242 0 00-3.422 3.891zm3.63 2.397a5.886 5.886 0 015.469-3.728 5.887 5.887 0 015.47 3.728H31.13zm2.177-11.317a3.296 3.296 0 013.292-3.292 3.296 3.296 0 013.292 3.292 3.296 3.296 0 01-3.292 3.292 3.295 3.295 0 01-3.292-3.292zm17.396-2.148h-6.827c-.928-3.142-3.838-5.441-7.277-5.441-3.438 0-6.348 2.3-7.277 5.44h-3.644c-.929-3.14-3.839-5.44-7.277-5.44-3.439 0-6.349 2.3-7.277 5.44H4.297V4.298h46.406v32.94zm-28.975-7.816l13.466-6.733c1.58-.79 1.582-3.053 0-3.843l-13.466-6.733c-1.426-.713-3.11.324-3.11 1.922V27.5c0 1.605 1.695 2.63 3.11 1.922zm1.188-11.911l6.513 3.256-6.513 3.257V17.51z" fill="#791CFF" fill-rule="nonzero"/></svg>
